x = 100, y = 100, rule = B3/S23:P100,100
obbboobbbbbbobbbbbbooboobbobbboobbbbbboobobobooobobobbobbobbbbbboooobbobbbbbbooobobobbbbobboobbooobb$
oooobbobobbbobbbbobooooobooboobobbobbbbbbbobbbboboobbbooobooobbobobobbbbbbbbobboboboobbboobboboooobo$
bbbobboobbbobobooobobooobbobooboooobooobbbobbbbbbbbbbbobooobbooboboobobooobbbobobbooobbbbobooobobbob$
bobbboobbboooobobbobbbbbobbobbboboboobbbobbboobbobobooobbbbobbooobbbbboobbobooobbooobbbbboobbooobbbo$
bboobooooobbbboobbobobbooboobboooooobbbobboooboooooobbbbbobboobbbobobboobboobbobbobbobboobobobobobbb$
booobooobooobbboobbboobbooobboobooobobbbbboobboobobooooooooobbboobboobobboobobboobboooobbobobobooooo$
obooooobbooobooobooboobobbbobobobobbobooobbbobboobooobobbboooobobbobobbbbbooobbobboooobbobobobbboobb$
bbbbobbboobbbbbobbbbooooboobobooobboboboobbobobbboobooobooobboboobboboboobboobboboobooobbobobooobooo$
ooboobbboboobbbobobbobobbobbbooobbbooobobbobbobooooobbooobobbbbbbobbbbbooobooooobobobboboboboobbobob$
obobbobbbbbobbbbboobobboobbbooobboobbboobbbooobobooobobbobobooobbboobboobbobooobbbobooooooobobbbobob$
obobbbbboooobobboboobbboboobbbbooooobooobobbbbbooooobbbbooobbobbbbbbbboobboooobbbobbbobooobbbbobbooo$
ooboboobboboboobobbbbboobobbbbboooboooobobboooooobbbbboooobobobbooboboobbbobbobobbbbboboooobobbbbbbb$
obbobbobobbobooooooboobbooboooobbbbboobobooboboooooobbobobbbbobobbbobobbobbobobooobobbobobobbobbbooo$
oooobboooobobobooobbbbboboboboobboboobooboobobboobbooboboobbbbbobobboboooobbbbbooobobboboooobobobboo$
oooboobbooboboobbobboobbboboooooboobobbbboobooooboboobbbbobboooboboboobbbobbbbbobobobobobboobobobbob$
bbbbbbobboooobbbooboobbbobooboobbboobbobboobooobbobbbobboobbbobobbbboooboooobbbobooboooboboobooooboo$
bbobbbooooobobobboboobbbbobbobbbobboooobbbbbooobbboobooobbbbobbobooobbbobbbbbbbboboboobbobbobobbbbbo$
ooooooobobobooobooobbooooooboobboooooboobooobooobbbboooobobbooboobbbooobobbooooooooooooboboobbbboobo$
obobbboobooobobooobbobobobobobobboobboooobobboobbbbboboobboboobbboobobboobbobobobbbboobbbboobobbobob$
bboboboooobbbbbooobbooooooobobobobobbboobooooobbbbboobbboobbboobooobboooooobooobbobbboooobobbooobooo$
boboobbbboboboobboobobooboobboooooobbbobbbbbobbobobobobbbbbobobboobobobbbbbbbooooooobbbbobbbbbbbobbb$
bbooobooboobboobbbbobooobbbobbbbboobboobbbbbbooobbboobboooboobbboobooobobobobooobooobobobbbooobbobbb$
boobobobbbobbboobobobbbobbobbobobbbooboboobbboobbobbbbobobboobobbobobbobobbbbbobbobobbboooooooboboob$
bbboooobbbbobooobobbooobboobbboobbobobobooobbbobboobooboobboobobbbobboboobbbbbobobbbbbbbbobboboboooo$
bbbbboobbooobbbobbbbobobobobbbooobooobbbobobbboboboooobbbbobboooobbbooobbobboooooobbooboobbooobooooo$
oooooboobbobbbbooobooobbbboobbbbbobobbobbbboboooooboobobooooboboobbbobbooobbbooobboobbbobooobooooobb$
oooboobbbbbbbbbbooooooooboooooobbbboooobooobobboobbbobooboooobobbbbboobbooooobbooobbbooooobbbbbobobo$
oobboooooboobobooooobobooboobboboobbbboooooooobooooobobbboboooboobbbobooobobobbobbbboobobbobbbobobob$
boobobbbbobbobbbobbooooobbobboobobbbbbbobbobbbboooooooobbbobbobbbobbbbboooobobbboobbbobooobobobboobo$
booboobobooboboobbbobobobbooboobooobobboobbobbboooboobooobooooobobooobbobbooobobbbobooobobbbobbobobo$
bobbobbobobbobbooobbobbbbooobooooboobobooobobooboooboboobooobooobbbooobbbooobobbboooobbbobooboobobob$
ooobboobbbooobbbobboobobbobobbboobbbbooobooboobbooooobbbbooobbobbobbbbobbooobooobobbboboobbbobobobbo$
obbbbobbbbbbboobbbbboboobbbobboboooboboobboobboboobbobooobbooboobbbooooobobbooooobbooooobbooooobbbbo$
booooboooobbbbooobboooboboobooooboobobbboooobobooobobbbbbobbboooobbooooobooobbobobooobooboobbboobbob$
oooobboobbbooboooooooobbboobbooobbobboooboobobobobbbbbbbbobooooobobbboboooboooobobboooobbobobobbbboo$
ooobobbobbbooobobbobbobooobbboobboooboobobobbbobbobbboooobboobbbbobobbobboobobobbbooooobooobobbobobo$
bbboobbbbobooobobobboobbboobooobobbobbobbbbbbobbbobobbooooboboobbooooooboooobobbbobbobbobbooboboboob$
ooboooobobbbobboboboobboobobobooobboobbboooobbbbbbobboooooobobbbbbboboobobbbboobbbooobobobbobbbbbboo$
obbbbbobbboooooooboobobbobobbbooobobboboooobbbbobobooboboobbbooobbobbboboooboobbobooobboboobbbooooob$
oooooboobbbobbobobobbbbbbboboobbooooobbooooobbbooobboobobobboooboboooooboooobbobobboobbboboobbbobooo$
boobobboooooooboooboboooobbbbboobbboboobobobbobbboobbbboooobbbbbboooooobobboooooobbbbbooooooooooboob$
oobbbobobboboobooobobobobooboooboobboobooboobbbobobbooobooooooobbobbbbbooooobbobbbboooooobobboobbooo$
bobobooobbbbbobboobbobobboobbobooobbbooobobboobbbobbbobooooobobooooobbooobobbobbboobbobobbobboooobbb$
bobbbbbboobbobbbbboooobooobbbboobooobbbbboooboobbbbbbbboboooboobbobboboooooooboboooooobboobbooobbbbb$
bboobobobboboobbbobooobooobbboooooobbobbobobbobbbbooobobobbbbobbbbbbbbbbobbboobooboobobboobbobooooob$
ooobooobobboboobboobobbobboobbbbboobbbbbobbooooooobobboboboboooobooobbooobobobbobooboobooooboooboooo$
obobobbobbbboooooooobobbobbobbboobboboobbobobboobboooobbboobbbbboboobobobbboooooooobbobooobobboboboo$
boobbbbbobbbobobbbooboobbbbooobbboobboboooobbbobbobobbobboboobboboooboobooooboobboooobbbbboobobbbbbo$
bbbboooobobooboboobobbooboboooooobooboooobbobbboooobobbooobobobbobboobobobbbbbooboooooboboooobbbobob$
obbooooobooooobbbbboobbbboooooobboobbbbobbobobooobooooobbbbboobooboooobobbboobbbobooboboooooboobobbb$
ooboooobbooobobbbbobbboboboboboooboooooboboooobboooobbboooobbbbbboobbobbobboboboobbboooooooobbbbobbb$
booobobobobobbooooboobobboooooobbobobooobbbbbobobbbbbbobobobobbooooboobbbooboooooboboobboobbobbobobb$
bbbbbooobbbobbboboooobooobobobobobbbbbobbbbobooooboooboobooboobooooooobbbbbboboooobbbbbbobbbboobbbbb$
oobbobboboboobbobbbobboobooboobbooobobbbbooboobbbbooooboboobooobbbbobooboboboobbboobooobbbobbobboooo$
bbbobobboobboobobbbooboobbbobobbbbbboboboobbooobbbbooooboobbbobobooobobbobboboooobboobboobbooooobooo$
booboobbooooooooooboobbboboobooooboboooooooboobobooboobbobbboobbbboooooooobooobboobooboobobboobobobo$
ooooobobbbboboobbobbbbbobbbbbbooboobboboobooobboobbbbbbbooobbooboboooboobooobbbboooobobbobooobbobobo$
bobbbobboboobbbboobbbbobbboooobbbbobbbobbobbboooobbboooooooobooobobbooboboboobbooobbobobooobbbbboobo$
oobboobbbbbooobbbbbbobbooobooboooobooboooobobobbbbobbobbbobbobobbobooobobbbobbbobbooboobbbobbooooooo$
bbbbboobbooobboobbbooooobobobbbbbooobobobboooobbbobobobbobboooobboobobboooboooobobbbboobbooobbbbobbo$
oboboobobbbbobooooobobbbboobbbobbboobbboobbbbobobbbbbbbobbbbobbobbboooboooboboooobboooobbbboboobobob$
bboobbboobboooboboboobobbobbbbobobbbbboobooobobooobooobbbbbobbbobobbooooooobooooobbobooobbboobbbbbbo$
obbbbbbooobbobbbbobobboboooboobobbboobboooboooobobobbbboboobbobooobboobobbooooobboobooobbbbbobbooobb$
ooboboobboobooobobboobbbbboboobbbbbooobbbboobooooboooooobobbbobbooobbbbobobbboboobbbbbooobbbbobbobob$
booboboboboobbobobobboobboboooboooobbbbobboooboooooobboooobobbbbboooboobbobbbooobobboooooobooboboobb$
bbbooboooobobbooboooooboobobbboobbobbobbbobobobooooobbbobbbbobbooobbbobbobbbbobobooboboooooobobboooo$
bbobobobobbboboooooobobbbbbobbobobbooobbbboboboooooooobbbobbbboboboobbobbboobbbobobbobobooobbbboobbb$
ooooobbobboobbobboobbobboboboobobbbbooooobooooboobobooobboobboobbbbobbbbbobooooobobbboboooooboobobob$
obobbooooobbboooobooobooobbbbboooobooobbbbboobbboobbbobbobboooooooboboobbbboobboooobbbbboobbbobbobbo$
obobooobobobboobbobbbbobobbbobobooboobboboobbbbboobbbobobboobbbbbbboobobooobboooooboboobbbboboobbbbb$
bbbobbbbbbbobbbboboboooobobooobooobbobbbbobboobobboooobbbbbbbboboobbobbbobobbbooobobbobobobbbobbbobb$
bbboobooooobooboboooboobooboboobbooboboboboboboobobboobbboobobobbobbooboobooooobobooobbbooooobbobbob$
ooooooobobbobbobbbboobobobboooobobbobbooobbbobbobbbbbbboooboboboooobbbbobooobbbobobooobobobobobbooob$
bboobooboboobooobbbboooboobobooobobbbobbbboboooobbooobbooobobobbobbboobobobobboobooobboooboboobbbooo$
oooooobboooooobboobboobobobooboobobboobboboboboobbobobbbobbbobobobboooooobobboboboooooobbobbbbbboobo$
obooooobbbbbobbbbbbbooooooooobboooboobbbobbboobobobbobbbooooobbbobbbobbobooobobbobobbbooobobobobbbob$
obbbboobbbbooobbbooboobobbboobbbbbbbbboobobobbobobooboboooooobooooobbobbooobooobobbbobobooboooooobbb$
obobbboooboboooboobobooooooboooooooboooboobbobobobbbooooooboobooooboobbobobobobbbbbboobboobbbbbbbbbo$
bbooobboobbbbobbbbboobbbobobooobobobbbbboobobbboooboooobobbbobbboobbooboboboooobbooobbboooooobbbbobo$
bbooobobooboooobobboboobbbboobbooooobbbbobbooboobobbooooooobbboboooobbbooboboboobbbbbbbbbobbbbobbbbo$
boobobbboboooobbobobbboboobbooooooboobbooboboooboobbooobooobbbboobbobooboobboobobbbooobooboobooobbbb$
obbbooobooobobbobbbbobbbbbbbobbobbbbbooobbobooobooboobbbboboooobobooooboobboobbobbobbbbbobbbboobobob$
boobobbobboboobbbbbbboboooobooooooobbbbbobooboobobbbbbobobbobbbboooooobobbooobooboobbbbboboooobboobo$
ooobbobooobobboooobbbbboobbbbobboooobbbbobooboobbobbboooooobooooooooobbbobobbbboobbbooobobboboobbbob$
obbooobboobbobobooboooboboboobbbooobobbbooboobbobooobbbbooobbobobbbobooobboooooobobbobooobbobbobbobo$
bobbbbbbbboobobooobboooboboboobbbbbooboobobobbboobboboobbbbooobboboboboboobbbboboobbobobbbooobbbobbb$
ooooboooobbobbbbobobobbobboobbbbbbbooboooobbboooboobboboboobobboobboooooobbbbbbbooboboobbobbbobbbbbo$
bbobbobbooobbooboobboooooobobbooobboooboboobboobobboooooboboboboobboboobbooboobbbbbboooobobbbbbbbbbb$
bbbooboobbooobobbbooobbbbobobobobbbbboboobbbbboobbbobbbobbbbbboooobbbooboobbbboobobboboooobobbooobob$
bbobbbbboooobobooobooooobbobbooobbobbobobbbooooobbbooobooobbbbobooobbobbbobbobbobobboboobboobobobbbb$
bboobooooobbbooobooobbbbbbbbbobbbboobooooboobbobobbobobbbobbboobooboobbobobooboooooooobbbbbbooooobbb$
bbbooobobobbobbbobooobooobbbbbbboobooobobboboooooooooobbbobboboboboobobooobbboooooobbobobbboooboobbb$
bobobooooooobobbooboobboobbbobbboooobbbobbooooobobboobbbooobobobbboboobbbobbbbbbobbooboooobbobbbbboo$
booboobobobbbbbbooooooobbooobbbbbooboboobbooobbbbbbobbbboooobbboboooboboobobbbbbbbbobbobbbboobbbbboo$
obbboboooboboobbbooboooobbbbobbbobooobbobobbbbbobobbbboboboboobbbobobbooooobobobbobbobbobbbbobbboooo$
bbbbboobbbooobbbbbbooooobboobooboobbboobobooooobboobbbobobobobooobbbooobooboooobbobobbobobbobooooboo$
obbobboobobooboboobobobobbooobbbbooobooboboobobbbobobbobbbobbbbooobobboboboooooobobbboooobbobboobobo$
obbobobbobbbooobobboobobbbobbboobobbbbbbobbbobbobboooobboobbbbbobooobbbobobbobobbbboboooooboobooobbb$
ooobbbbobobbobobbooobboboobbbbbbobbbobbobboobobbooobboobbobboboooobbobbboooooooobbooboboobobobobbbob$
bobobooboobooobbobbbobobbbbobboboobbobobobobooboobooooobbbobbbbbbbboooobbooobboooobooooobbobooboboob!